!!!OTL: liabi liabi muatar gotas
!!!ARE: Europa, Mitteleuropa, Schweiz, Oberwallis
!!!SCT: V0001B
!!!YEM: Copyright 1995, estate of Helmut Schaffrath.
**kern
*ICvox
*Ivox
!! Mixed meters:  3/4; 2/4
*M3/4
*k[b-e-]
*g:
{8b-
8b-
8b-
8b-
8b-
8b-
=1
*M2/4
4b-
4g}
=2
*M3/4
{12b-
12b-
12b-
8b-
8b-
4g}
=3
{8b-
8b-
8b-
8b-
8b-
8b-
=4
*M2/4
4g
4r}
=5
{8b-
8b-
8b-
8cc
=6
4b-
4g}
=7
{8b-
8b-
8b-
8b-
=8
*M3/4
8b-
8b-
8b-
8cc
8a-
8a-
=9
*M2/4
8.b-
16b-
8b-
8r}
=10
{8b-
8b-
8b-
8cc
=11
4g
4r}
==
!!!AGN: Brauchtum, Beschwoerung (Nebel)
!!!ONB: ESAC (Essen Associative Code) Database: VARIANT
!!!AMT: irregular
!!!AIN: vox
!!!EED: Helmut Schaffrath
!!!EEV: 1.0
*-
